svgs/sharp-solid/battery-slash.svg

<svg xmlns="http://www.w3.org/2000/svg" viewBox="0 0 640 512"><!--! Font Awesome Pro 6.6.0 by @fontawesome - https://fontawesome.com License - https://fontawesome.com/license (Commercial License) Copyright 2024 Fonticons, Inc. --><path d="M48.4 14.8L29.4 .1 0 38 19 52.7 591.5 497.2l19 14.7L639.9 474l-19-14.7L565.2 416l10.8 0 0-64 0-32 32 0 0-128-32 0 0-32 0-64-64 0L153 96 48.4 14.8zM235.4 160L512 160l0 192-29.3 0L235.4 160zM406.2 416l-81.2-64L96 352l0-180.4L32 121.2 32 160l0 192 0 64 64 0 310.2 0z"/></svg>

<svg xmlns="http://www.w3.org/2000/svg" viewBox="0 0 640 512"><!--! Font Awesome Pro 6.4.0 by @fontawesome - https://fontawesome.com License - https://fontawesome.com/license (Commercial License) Copyright 2023 Fonticons, Inc. --><path d="M48.4 14.8L29.4 .1 0 38 19 52.7 591.5 497.2l19 14.7L639.9 474l-19-14.7L565.2 416H576V352 320h32V192H576V160 96H512 153L48.4 14.8zM235.4 160H512V352H482.7L235.4 160zm89.5 192H96V171.6L32 121.2V160 352v64H96 406.2l-81.2-64z"/></svg>
